X: 15749
T: Gone, I'm
R: reel
M: 4/4
K: Dminor
Ade|:"Dm" feff- fgag|"A" ed^cG Agfe|"Dm"defd "Gm"gabg|"Dm"a>bag fede|
"F"feff- fgag|"A" ed^cB Aceg|"Dm" faeg fde=c|1 "A"Ad-d^c "Dm" dAde:|2 "A"Ad-d^c "Dm" d2=cB||
|:"F"ABc2 ""c2(3ABc|"Gm"dcBA G2 AG|"F"FGAF A2 B2|"C"G6 cB|"F/A"AB c^c "Gm"defg|
"Dm"agfe f2-fc|1 "F"def2 "A" g2 e2|"Dm" d6 FG:|2 "F"cBAc "A"^cdec|"Dm"d4- d^cde||

